client/assets/oovvuu-small-logo.svg

<svg focusable="false" aria-hidden="true" height="24" viewBox="0 0 24 24" width="24" xmlns="http://www.w3.org/2000/svg"><path d="m12 0v6.003906h-6v11.992188h12v5.992187h-12v.011719h-.375c-3.105469 0-5.625-2.519531-5.625-5.628906v-.375h.0117188v-11.992188h-.0117188v-.375c0-3.109375 2.519531-5.628906 5.625-5.628906zm6 17.996094v-6.007813h6v6.382813c0 3.109375-2.519531 5.628906-5.625 5.628906h-.375zm6-17.996094v9.757812h-7.28125l-5.988281 3.457032 3.519531-6.113282v-7.101562zm0 0"/></svg>

<svg xmlns="http://www.w3.org/2000/svg" xmlns:xlink="http://www.w3.org/1999/xlink" width="24pt" height="24pt" viewBox="0 0 24 24" class="oovvuu-small-logo">
	<g id="surface1">
		<path d="M 12 0 L 12 6.003906 L 6 6.003906 L 6 17.996094 L 18 17.996094 L 18 23.988281 L 6 23.988281 L 6 24 L 5.625 24 C 2.519531 24 0 21.480469 0 18.371094 L 0 17.996094 L 0.0117188 17.996094 L 0.0117188 6.003906 L 0 6.003906 L 0 5.628906 C 0 2.519531 2.519531 0 5.625 0 Z M 18 17.996094 L 18 11.988281 L 24 11.988281 L 24 18.371094 C 24 21.480469 21.480469 24 18.375 24 L 18 24 Z M 24 0 L 24 9.757812 L 16.71875 9.757812 L 10.730469 13.214844 L 14.25 7.101562 L 14.25 0 Z M 24 0 "/>
	</g>
</svg>
